blockchains/ethereum/assets/0x4922a015c4407F87432B179bb209e125432E4a2A/logo.svg

<svg fill="none" height="250" viewBox="0 0 250 250" width="250" xmlns="http://www.w3.org/2000/svg" xmlns:xlink="http://www.w3.org/1999/xlink"><linearGradient id="a" gradientUnits="userSpaceOnUse" x1="-3.96067" x2="238.523" y1="126.373" y2="126.373"><stop offset="0" stop-color="#d8b35d"/><stop offset="1" stop-color="#f5e7bf"/></linearGradient><clipPath id="b"><path d="m0 0h250v250h-250z"/></clipPath><g clip-path="url(#b)" clip-rule="evenodd" fill-rule="evenodd"><path d="m45.804 21.9502-45.603903 96.3078c-.1823584.349-.2451652.749-.1786856 1.137.0664796.389.2585326.744.5463926 1.012l123.104196 118.683c.354.321.814.498 1.291.498s.937-.177 1.291-.498l123.178-118.683c.285-.27.475-.625.541-1.013.067-.387.006-.786-.173-1.136l-45.604-96.3078c-.121-.335-.344-.623-.638-.8229-.293-.2-.642-.3016-.996-.2905h-155.1401c-.3496.0096-.6892.1195-.9788.3168-.2895.1972-.517.4736-.6555.7966z" fill="url(#a)"/><path d="m140.84 128.108c-.883.074-5.45.37-15.62.37-8.101 0-13.85-.222-15.913-.37-31.3083-1.405-54.6617-6.89-54.6617-13.41s23.3534-12.075 54.6617-13.48v21.409c2.043.148 7.885.518 15.987.518 9.724 0 14.586-.444 15.472-.518v-21.409c31.235 1.405 54.588 6.89 54.588 13.406s-23.288 12.079-54.514 13.484zm0-29.039v-19.1909h43.614v-29.2609h-118.7571v29.2609h43.6101v19.1909c-35.4347 1.643-62.1017 8.665-62.1017 17.186s26.667 15.485 62.1017 17.186v61.418h31.533v-61.418c35.361-1.644 61.959-8.669 61.959-17.112s-26.598-15.633-61.959-17.2559z" fill="#fff"/></g></svg>

<svg width="250" height="250" viewBox="0 0 250 250" fill="none" xmlns="http://www.w3.org/2000/svg">
<g clip-path="url(#clip0_48_13091)">
<path fill-rule="evenodd" clip-rule="evenodd" d="M45.804 21.9502L0.200097 118.258C0.0177386 118.607 -0.0450682 119.007 0.0214114 119.395C0.087891 119.784 0.279944 120.139 0.567804 120.407L123.672 239.09C124.026 239.411 124.486 239.588 124.963 239.588C125.44 239.588 125.9 239.411 126.254 239.09L249.432 120.407C249.717 120.137 249.907 119.782 249.973 119.394C250.04 119.007 249.979 118.608 249.8 118.258L204.196 21.9502C204.075 21.6152 203.852 21.3272 203.558 21.1273C203.265 20.9273 202.916 20.8257 202.562 20.8368H47.4219C47.0723 20.8464 46.7327 20.9563 46.4431 21.1536C46.1536 21.3508 45.9261 21.6272 45.7876 21.9502H45.804Z" fill="url(#paint0_linear_48_13091)"/>
<path fill-rule="evenodd" clip-rule="evenodd" d="M140.84 128.108C139.957 128.182 135.39 128.478 125.22 128.478C117.119 128.478 111.37 128.256 109.307 128.108C77.9987 126.703 54.6453 121.218 54.6453 114.698C54.6453 108.178 77.9987 102.623 109.307 101.218V122.627C111.35 122.775 117.192 123.145 125.294 123.145C135.018 123.145 139.88 122.701 140.766 122.627V101.218C172.001 102.623 195.354 108.108 195.354 114.624C195.354 121.14 172.066 126.703 140.84 128.108ZM140.84 99.069V79.8781H184.454V50.6172H65.6969V79.8781H109.307V99.069C73.8723 100.712 47.2053 107.734 47.2053 116.255C47.2053 124.776 73.8723 131.74 109.307 133.441V194.859H140.84V133.441C176.201 131.797 202.799 124.772 202.799 116.329C202.799 107.886 176.201 100.696 140.84 99.0731V99.069Z" fill="white"/>
</g>
<defs>
<linearGradient id="paint0_linear_48_13091" x1="-3.96067" y1="126.373" x2="238.523" y2="126.373" gradientUnits="userSpaceOnUse">
<stop stop-color="#D8B35D"/>
<stop offset="1" stop-color="#F5E7BF"/>
</linearGradient>
<clipPath id="clip0_48_13091">
<rect width="250" height="250" fill="white"/>
</clipPath>
</defs>
</svg>
